icons/outline/brightness-down.svg

<!--
category: Photography
tags: [dark, darker, screen]
version: "1.3"
unicode: "eb7d"
-->
<svg
  xmlns="http://www.w3.org/2000/svg"
  width="24"
  height="24"
  viewBox="0 0 24 24"
  fill="none"
  stroke="currentColor"
  stroke-width="2"
  stroke-linecap="round"
  stroke-linejoin="round"
>
  <path d="M12 12m-3 0a3 3 0 1 0 6 0a3 3 0 1 0 -6 0m3 -7l0 .01m5 1.99l0 .01m2 4.99l0 .01m-2 4.99l0 .01m-5 1.99l0 .01m-5 -2.01l0 .01m-2 -5.01l0 .01m2 -5.01l0 .01" />
</svg>

<!--
category: Photography
tags: [dark, darker, screen]
version: "1.3"
unicode: "eb7d"
-->
<svg
  xmlns="http://www.w3.org/2000/svg"
  width="24"
  height="24"
  viewBox="0 0 24 24"
  fill="none"
  stroke="currentColor"
  stroke-width="2"
  stroke-linecap="round"
  stroke-linejoin="round"
>
    <path d="M12 12m-3 0a3 3 0 1 0 6 0a3 3 0 1 0 -6 0M12 5l0 .01M17 7l0 .01M19 12l0 .01M17 17l0 .01M12 19l0 .01M7 17l0 .01M5 12l0 .01M7 7l0 .01" />
</svg>
